!!!OTL: SOLDATISCHES LEBEN
!!!ARE: Europa, Mitteleuropa, Deutschland, Hessen, Oberhessen; Limburg
!!!SCT: E1399
!!!YEM: Copyright 1995, estate of Helmut Schaffrath.
**kern
*ICvox
*Ivox
*M6/8
*k[f#]
*G:
{8d
=1
8d
8g
8g
8g
8a
8b
=2
8b
8a
8a
4a}
{8a
=3
8.b
16cc
8dd
8dd
8cc
8b
=4
4.b
4a}
{8a
=5
8a
8a
8b
8.cc
16b
8a
=6
4b
8cc
4dd}
{8a
=7
8a
8a
8b
8.cc
16b
8a
=8
4b
8cc
4dd}
{16b
16cc
=9
8dd
8dd
8dd
8ee
8dd
8cc
=10
4b
8cc
4dd}
{16dd
16cc
=11
8.b
16cc
8b
8a
8g
8a
=12
4.g
4r}
==
!!!AGN: Staende -, Soldaten - Lied
!!!ONB: ESAC (Essen Associative Code) Database: ERK3
!!!AMT: compound duple
!!!AIN: vox
!!!EED: Helmut Schaffrath
!!!EEV: 1.0
*-
